X: 4
T: The Humours Of Whiskey
R: slip jig
M: 9/8
L: 1/8
K: Emin
BcA BEE BEE|BcA BGE FED|BcA BGE BGE|F2A ABG FED:|
G2A BcA BcA|G2A Bcd ecA|G2A BcA Bcd|ecA ABG FED:|


Tune 1023	Setting 1023

